docs/img/icon1/icon-dark.svg

<svg class="icon-changing-part" xmlns="http://www.w3.org/2000/svg" width="91" height="70" viewBox="0 0 91 70" fill="none">
<path d="M90.7379 11.6687H67.7777V70H56.109V11.6687H26.5944L18.9297 42.2899H32.7019V23.3375H44.3582V70H32.7019V54.0949H15.9826L11.8908 70H0L17.7004 0C38.1765 0 70.2618 0 90.7379 0V11.6687Z" fill="#232323"/>
<path d="M32.7586 0H44.4149V11.6687H32.7586V0Z" fill="#FF1D1D"/>
</svg>

<svg class="icon-changing-part" xmlns="http://www.w3.org/2000/svg" width="91" height="70" fill="none"><path d="M90.738 11.669h-22.96V70H56.109V11.669H26.594l-7.664 30.62h13.772V23.338h11.656V70H32.702V54.095h-16.72L11.892 70H0L17.7 0h73.038v11.669z" fill="#232323"/><path d="M32.759 0h11.656v11.669H32.759V0z" fill="#FF1D1D"/></svg>
